src/images/hexagrams/svg/64.svg

<svg xmlns="http://www.w3.org/2000/svg" viewBox="0 0 70 70" enable-background="new 0 0 70 70"><path d="M68 68h-28v-6h28v6zm-38 0h-28v-6h28v6zm38-12h-66v-6h66v6zm0-12h-28v-6h28v6zm-38 0h-28v-6h28v6zm38-12h-66v-6h66v6zm0-12h-28v-6h28v6zm-38 0h-28v-6h28v6zm38-12h-66v-6h66v6z"/></svg>

<?xml version="1.0" encoding="utf-8"?>
<!-- Generator: Adobe Illustrator 20.1.0, SVG Export Plug-In . SVG Version: 6.00 Build 0)  -->
<svg version="1.1" id="Layer_1" xmlns="http://www.w3.org/2000/svg" xmlns:xlink="http://www.w3.org/1999/xlink" x="0px" y="0px"
	 viewBox="0 0 70 70" style="enable-background:new 0 0 70 70;" xml:space="preserve">
<path d="M68,68H40v-6h28V68z M30,68H2v-6h28V68z M68,56H2v-6h66V56z M68,44H40v-6h28V44z M30,44H2v-6h28V44z M68,32H2v-6h66V32z
	 M68,20H40v-6h28V20z M30,20H2v-6h28V20z M68,8H2V2h66V8z"/>
</svg>
